packages/foundations/assets/icons/functional/images/notification/exclamation_mark_circle_16.svg

<svg width="16" height="16" viewBox="0 0 16 16" fill="none" xmlns="http://www.w3.org/2000/svg">
<g clip-path="url(#clip0_187_180)">
<path fill-rule="evenodd" clip-rule="evenodd" d="M7.99998 1.6C11.5249 1.6 14.4 4.47504 14.4 8C14.4 11.525 11.5249 14.4 7.99998 14.4C4.47502 14.4 1.59998 11.525 1.59998 8C1.59998 4.47504 4.47502 1.6 7.99998 1.6ZM7.99998 3.2C5.34998 3.2 3.19998 5.35 3.19998 8C3.19998 10.65 5.34998 12.8 7.99998 12.8C10.65 12.8 12.8 10.65 12.8 8C12.8 5.35 10.65 3.2 7.99998 3.2ZM7.99998 9.6C8.44998 9.6 8.79998 9.95548 8.79998 10.3873C8.79998 10.8444 8.44998 11.2 7.99998 11.2C7.57502 11.2 7.19998 10.8444 7.19998 10.3873C7.19998 9.95548 7.57502 9.6 7.99998 9.6ZM8.79998 4.8V8.8H7.19998V4.8H8.79998Z" fill="#1A1C1F"/>
</g>
<defs>
<clipPath id="clip0_187_180">
<rect width="16" height="16" fill="white"/>
</clipPath>
</defs>
</svg>

<svg xmlns="http://www.w3.org/2000/svg" width="16" height="16" fill="none"><g clip-path="url(#a)"><path fill="#1A1C1F" fill-rule="evenodd" d="M8 1.6c3.525 0 6.4 2.875 6.4 6.4s-2.875 6.4-6.4 6.4S1.6 11.525 1.6 8 4.475 1.6 8 1.6m0 1.6a4.801 4.801 0 0 0 0 9.6 4.801 4.801 0 0 0 0-9.6m0 6.4c.45 0 .8.355.8.787 0 .457-.35.813-.8.813a.81.81 0 0 1-.8-.813c0-.432.375-.787.8-.787m.8-4.8v4H7.2v-4z" clip-rule="evenodd"/></g><defs><clipPath id="a"><path fill="#fff" d="M0 0h16v16H0z"/></clipPath></defs></svg>
